!!!COM: Beethoven
!!!OTL: Acht Variationen uber das Trio "Tandeln und Scherzen" aus der Oper: Soliman oder die drei Sultaninnen von Sussmayer
!!!Variation: Theme a
**function	**harm	**kern	**kern
*	*	*clefF4	*clefG2
*	*	*k[b-]	*k[b-]
*M3/8	*M3/8	*M3/8	*M3/8
*F:	*F:	*F:	*F:
=1	=1	=1	=1
4.T	B-:maj	8F 8A 8c	8fL
.	.	8r	8a
.	.	8F 8A 8c	8fJ
=2	=2	=2	=2
.	.	.	qdd
4.T	F:maj	8C 8E 8G 8c	16ccLL
.	.	.	16b
.	.	8r	16cc
.	.	.	16ddJ
.	.	8r	8ccJ
=3	=3	=3	=3
4.T	F:7	8C 8E 8G 8c	8b-L
.	.	8r	8g
.	.	8C 8E 8G 8c	8ccJ
=4	=4	=4	=4
.	.	.	qb-
4.T	B-:maj	8F 8A 8c	8aL
.	.	8r	16gL
.	.	.	16aJ
.	.	8r	8fJ
=5	=5	=5	=5
4.T	B-:maj	8F 8A 8c	8fL
.	.	8r	8a
.	.	8F 8A 8c	8bJ
=6	=6	=6	=6
.	.	.	qdd
4D	F:maj/3	8E 8G 8c	16ccLL
.	.	.	16b
.	.	8r	16cc
.	.	.	16ddJ
8D	F:maj	8C	8eeJ
=7	=7	=7	=7
8D	G:min/b3	8FL	8fL 8a 8dd
8D	F:maj/5	8G	8e 8g 8cc
8D	C:7	8GGJ	8dJ 8f 8g 8b
=8	=8	=8	=8
4.D	F:maj	4.C;	4.e; 4.g; 4.cc;
*-	*-	*-	*-
!!!EMD: Edited in humdrumR 0.7.0.3 on 2024-01-19
